svg/m/UG.svg

<svg width="20" height="15" viewBox="0 0 20 15" fill="none" xmlns="http://www.w3.org/2000/svg">
<g clip-path="url(#clip0_270_60923)">
<rect width="20" height="15" fill="white"/>
<path fill-rule="evenodd" clip-rule="evenodd" d="M0 0V15H20V0H0Z" fill="#FECA00"/>
<mask id="mask0_270_60923" style="mask-type:luminance" maskUnits="userSpaceOnUse" x="0" y="0" width="20" height="15">
<path fill-rule="evenodd" clip-rule="evenodd" d="M0 0V15H20V0H0Z" fill="white"/>
</mask>
<g mask="url(#mask0_270_60923)">
<rect width="20" height="2.5" fill="#272727"/>
<rect y="5" width="20" height="2.5" fill="#D74800"/>
<rect y="7.5" width="20" height="2.5" fill="#272727"/>
<rect y="12.5" width="20" height="2.5" fill="#D74800"/>
<path fill-rule="evenodd" clip-rule="evenodd" d="M10 11.25C12.0711 11.25 13.75 9.57107 13.75 7.5C13.75 5.42893 12.0711 3.75 10 3.75C7.92893 3.75 6.25 5.42893 6.25 7.5C6.25 9.57107 7.92893 11.25 10 11.25Z" fill="#F7FCFF"/>
<path fill-rule="evenodd" clip-rule="evenodd" d="M8.54975 5.2054L7.88851 5.42237L8.54975 5.47898C8.54975 5.47898 8.65665 5.74045 8.54975 5.94457C8.52261 5.99638 8.45261 6.06277 8.36326 6.1475C8.10063 6.39656 7.67082 6.80417 7.67082 7.4664C7.67082 8.35394 9.38364 8.75636 9.38364 8.75636V9.17804C9.38364 9.17804 9.58246 9.30152 8.4482 9.30152C7.46455 9.30152 7.52607 9.67492 7.55975 9.87934C7.5649 9.91064 7.56941 9.93797 7.56941 9.9594C7.56941 10.1208 8.04219 9.79802 8.2635 9.47665C8.38 9.30748 8.86785 9.31641 9.36855 9.36282C9.40807 9.36648 9.77315 10.1398 9.45621 10.5393C9.32307 10.7071 8.86327 10.729 8.576 10.7427C8.42952 10.7496 8.32789 10.7545 8.33732 10.7754C8.34439 10.7911 8.43102 10.786 8.55694 10.7785C8.71411 10.7691 8.93247 10.756 9.13373 10.7754C9.16427 10.7784 9.04583 10.8812 8.92607 10.9851C8.80273 11.0922 8.67798 11.2004 8.71314 11.2021C8.75265 11.204 8.98363 11.076 9.19348 10.9598C9.36708 10.8636 9.52622 10.7754 9.5505 10.7754C9.70885 10.7754 9.85183 10.795 9.97724 10.8121C10.1869 10.8407 10.3474 10.8627 10.4485 10.7754C10.4796 10.7486 10.2992 10.7053 10.1152 10.6613C9.92565 10.6159 9.73237 10.5695 9.76283 10.5393C9.93705 10.3664 9.86427 10.004 9.80695 9.71861C9.78123 9.59057 9.75863 9.47802 9.76283 9.40501C9.77775 9.14578 10.052 9.28176 10.2675 9.38863C10.3618 9.43543 10.445 9.47665 10.4901 9.47665C10.8982 9.47665 10.3915 8.96046 10.1133 8.67714C10.0889 8.65231 10.0663 8.62927 10.0462 8.60852C9.90478 8.46246 10.004 8.48209 10.2283 8.52643C10.3994 8.56028 10.6434 8.60852 10.9087 8.60852C11.5219 8.60852 11.9693 8.40934 11.8139 7.87001C11.7113 7.51419 11.1498 7.39312 10.5631 7.26663C10.2606 7.20139 9.95129 7.13471 9.69486 7.03363C9.06396 6.78496 9.09613 6.42241 9.12333 6.11584C9.12862 6.05621 9.13373 5.99871 9.13373 5.94457C9.13373 5.61206 9.69486 5.2054 9.69486 5.2054C9.69486 5.2054 9.43877 4.77631 9.0141 4.77631C8.58943 4.77631 8.54975 5.2054 8.54975 5.2054ZM9.70487 9.1103V8.7967C9.70487 8.7967 9.96709 8.78805 10.0591 9.00865C10.151 9.22925 9.70487 9.1103 9.70487 9.1103Z" fill="#272727"/>
<path fill-rule="evenodd" clip-rule="evenodd" d="M8.17307 4.19458L8.80654 4.94579L9.1346 4.86863L8.97727 4.11029L8.17307 4.19458Z" fill="#D74800"/>
<path fill-rule="evenodd" clip-rule="evenodd" d="M8.99549 4.01292L9.03632 5.14232L9.57725 5.00922L9.8076 4.26953L8.99549 4.01292Z" fill="#FFD018"/>
<path fill-rule="evenodd" clip-rule="evenodd" d="M8.48557 5.89935C8.60506 5.89935 8.70192 5.80491 8.70192 5.68842C8.70192 5.57192 8.60506 5.47748 8.48557 5.47748C8.36609 5.47748 8.26923 5.57192 8.26923 5.68842C8.26923 5.80491 8.36609 5.89935 8.48557 5.89935Z" fill="#D74800"/>
<path fill-rule="evenodd" clip-rule="evenodd" d="M9.86029 4.22454L9.23049 4.97884L9.36345 5.28852L10.0829 5.00189L9.86029 4.22454Z" fill="#D74800"/>
<path fill-rule="evenodd" clip-rule="evenodd" d="M11.3242 9.93319C11.3242 9.93319 12.4319 9.43833 12.4319 8.74627C12.4319 8.0542 10.6332 7.30035 10.6332 7.30035C10.6332 7.30035 9.5751 7.54252 10.052 7.86658C10.5289 8.19065 11.1679 8.31515 11.1679 8.74627C11.1679 9.17739 11.3429 9.58848 10.9881 9.58848C10.6332 9.58848 11.3242 9.93319 11.3242 9.93319Z" fill="#D74800"/>
<path fill-rule="evenodd" clip-rule="evenodd" d="M9.72593 7.17389C9.72593 7.17389 9.33414 7.24271 9.35274 7.30635C9.40417 7.48227 9.93988 7.71141 10.1734 7.87006C10.6503 8.19412 11.1024 8.15772 11.4388 7.94682C11.7752 7.73592 9.72593 7.17389 9.72593 7.17389Z" fill="#FFFDFF"/>
</g>
</g>
<defs>
<clipPath id="clip0_270_60923">
<rect width="20" height="15" fill="white"/>
</clipPath>
</defs>
</svg>

<svg width="20" height="15" fill="none" xmlns="http://www.w3.org/2000/svg">
  <mask id="a" maskUnits="userSpaceOnUse" x="0" y="0" width="20" height="15">
    <path fill="#fff" d="M0 0h20v15H0z"/>
  </mask>
  <g mask="url(#a)">
    <path fill-rule="evenodd" clip-rule="evenodd" d="M0 0v15h20V0H0z" fill="#FECA00"/>
    <mask id="b" maskUnits="userSpaceOnUse" x="0" y="0" width="20" height="15">
      <path fill-rule="evenodd" clip-rule="evenodd" d="M0 0v15h20V0H0z" fill="#fff"/>
    </mask>
    <g mask="url(#b)">
      <path fill="#272727" d="M0 0h20v2.5H0z"/>
      <path fill="#D74800" d="M0 5h20v2.5H0z"/>
      <path fill="#272727" d="M0 7.5h20V10H0z"/>
      <path fill="#D74800" d="M0 12.5h20V15H0z"/>
      <path fill-rule="evenodd" clip-rule="evenodd" d="M10 11.25a3.75 3.75 0 100-7.5 3.75 3.75 0 000 7.5z" fill="#F7FCFF"/>
      <path fill-rule="evenodd" clip-rule="evenodd" d="M8.55 5.205l-.661.217.66.057s.108.261 0 .466a1.046 1.046 0 01-.186.202c-.262.25-.692.657-.692 1.32 0 .887 1.713 1.29 1.713 1.29v.421s.198.124-.936.124c-.983 0-.922.373-.888.577.005.032.01.059.01.08 0 .162.472-.161.694-.482.116-.17.604-.16 1.105-.114.04.003.404.777.087 1.176-.133.168-.593.19-.88.204-.146.007-.248.011-.239.032.007.016.094.011.22.003.157-.009.375-.022.577-.003.03.003-.088.106-.208.21-.123.107-.248.215-.213.217.04.002.27-.126.48-.242.174-.096.333-.185.357-.185.159 0 .302.02.427.037.21.029.37.05.471-.037.032-.026-.149-.07-.333-.114-.19-.045-.383-.091-.352-.122.174-.173.101-.535.044-.82a1.497 1.497 0 01-.044-.314c.015-.26.289-.123.505-.016.094.046.177.088.222.088.408 0-.098-.517-.377-.8a13.806 13.806 0 01-.067-.068c-.141-.147-.042-.127.182-.083.171.034.415.083.68.083.614 0 1.061-.2.906-.739-.103-.356-.664-.477-1.25-.603-.303-.066-.613-.132-.87-.233-.63-.249-.598-.612-.57-.918.005-.06.01-.117.01-.171 0-.333.56-.74.56-.74s-.255-.429-.68-.429c-.425 0-.464.43-.464.43zM9.705 9.11v-.313s.262-.009.354.212c.092.22-.354.101-.354.101z" fill="#272727"/>
      <path fill-rule="evenodd" clip-rule="evenodd" d="M8.173 4.195l.634.75.328-.076-.158-.759-.804.085z" fill="#D74800"/>
      <path fill-rule="evenodd" clip-rule="evenodd" d="M8.995 4.013l.041 1.13.541-.134.23-.74-.812-.256z" fill="#FFD018"/>
      <path fill-rule="evenodd" clip-rule="evenodd" d="M8.486 5.9c.12 0 .216-.095.216-.212a.214.214 0 00-.216-.21.214.214 0 00-.217.21c0 .117.097.211.217.211zM9.86 4.225l-.63.754.133.31.72-.287-.223-.777zm1.464 5.708s1.108-.495 1.108-1.187c0-.692-1.799-1.446-1.799-1.446s-1.058.243-.581.567c.477.324 1.116.448 1.116.88 0 .43.175.841-.18.841s.336.345.336.345z" fill="#D74800"/>
      <path fill-rule="evenodd" clip-rule="evenodd" d="M9.726 7.174s-.392.069-.373.132c.051.176.587.405.82.564.477.324.93.288 1.266.077.336-.211-1.713-.773-1.713-.773z" fill="#FFFDFF"/>
    </g>
  </g>
</svg>
